!!!COM: Bach, Johann Sebastian
!!!OPR: Joh. Seb. Bachs vierstimmige Choralges‰nge
!!!XEN: Four-part Chorales
!!!OTL: 109. Jesu, nun sei gepreiset
!!!SCT: BWV 362
!!!SCA: Thematisch-systematisches Verzeichnis der musikalischen Werke Johann Sebastian Bach: Bach-Werke-Verzeichnis (Schmieder)
!!!YOR: Bach Gesellschaft Edition xxxix
!!!ENC: Steven Rasmussen
!!!CDT: 1685/3//-1750/7/28/
!!!OCY: Deutschland
!!!YEC: Copyright (c) 1994, 2000 Center for Computer Assisted Research in the Humanities
!!!YEM: Rights to all derivative editions reserved
!!!YEN: United States of America
**kern	**silbe	**kern	**silbe	**kern	**silbe	**kern	**silbe
*I:[BASSO]	*I:[BASSO]	*I:[TENORE]	*I:[TENORE]	*I:[ALTO]	*I:[ALTO]	*I:[SOPRANO]	*I:[SOPRANO]
*>[A,A,B]	*	*>[A,A,B]	*	*>[A,A,B]	*	*>[A,A,B,A,A,B,C]	*
*>A	*	*>A	*	*>A	*	*>A	*
*clefF4	*	*clefGv2	*	*clefG2	*	*clefG2	*
*k[b-e-]	*	*k[b-e-]	*	*k[b-e-]	*	*k[b-e-]	*
*B-:	*	*B-:	*	*B-:	*	*B-:	*
*M4/4	*	*M4/4	*	*M4/4	*	*M4/4	*
8B-L	.	4B-	.	4f	.	4dd	Je-Dass
8AJ	.	.	.	.	.	.	.
=1	=1	=1	=1	=1	=1	=1	=1
8GL	.	8B-L	.	8gL	.	4dd	-su,wir
8AJ	.	8cJ	.	8f#J	.	.	.
8GL	.	4d	.	4g	.	4b-	nunha-
8FJ	.	.	.	.	.	.	.
8E-L	.	4c	.	8gL	.	4cc	sei-ben
8FJ	.	.	.	8aJ	.	.	.
8E-L	.	4f	.	4b-	.	4dd	ge-er-
8DJ	.	.	.	.	.	.	.
=2	=2	=2	=2	=2	=2	=2	=2
4C	.	8e-L	.	8b-L	.	4ee-	-prei--le-
.	.	8cJ	.	8aJ	.	.	.
8DL	.	4f	.	4b-	.	8ddL	.
8E-J	.	.	.	.	.	8ccJ	.
4F;	.	4f;	.	4a;	.	4cc;	-set-bet
4E-	.	4c	.	4g	.	4cc	zudie
=3	=3	=3	=3	=3	=3	=3	=3
4D	.	8dL	.	4f#	.	4cc	die-neu'
.	.	8AJ	.	.	.	.	.
8GL	.	4B-	.	4d	.	4b-	-semfr√∂h-
8FJ	.	.	.	.	.	.	.
4En	.	4c	.	4g	.	8b-L	neu--li-
.	.	.	.	.	.	8gJ	.
4F	.	4c	.	4fn	.	4a	-en-che
=4	=4	=4	=4	=4	=4	=4	=4
2.BB-;	.	2.d;	.	2.f;	.	2.b-;	Jahr,Zeit,
8FL	.	8AL	.	8fL	.	4cc	f√ºrdie
8GJ	.	8B-J	.	8enJ	.	.	.
=5	=5	=5	=5	=5	=5	=5	=5
8AL	.	8cL	.	8fL	.	4cc	dein'vol-
8B-J	.	8dJ	.	8gJ	.	.	.
4c	.	4e-	.	8aL	.	4cc	G√ºt'-ler
.	.	.	.	8gJ	.	.	.
4.F#	.	4d	.	4.a	.	8ccL	unsGna-
.	.	.	.	.	.	16ddL	.
.	.	.	.	.	.	16ee-JJ	.
.	.	4A	.	.	.	8ddL	be--den
8D	.	.	.	8f#	.	8ccJ	.
=6	=6	=6	=6	=6	=6	=6	=6
8GL	.	4B-	.	8dL	.	2b-	-wei-schwe-
8F	.	.	.	8e-J	.	.	.
8E-	.	4A-	.	4f	.	.	.
8DJ	.	.	.	.	.	.	.
4E-;	.	4G;	.	4e-;	.	4b-;	-set-bet
4En	.	4c	.	4g	.	4b-	inund
=7	=7	=7	=7	=7	=7	=7	=7
4F	.	4c	.	8fL	.	8aL	al-ew'-
.	.	.	.	8e-J	.	8fJ	.
4G	.	4B-	.	8dL	.	8b-L	-ler-ger
.	.	.	.	8e-J	.	8ee-J	.
8FL	.	4B-	.	8fL	.	8ddL	NotSe-
8E-J	.	.	.	8gJ	.	8ccJ	.
4F	.	4A	.	8fL	.	4cc	und-lig-
.	.	.	.	8e-J	.	.	.
=8	=8	=8	=8	=8	=8	=8	=8
2.BB-;	.	2.F;	.	2.d;	.	2.b-;	G'fahr:-keit.
*	*	*	*	*	*	*>B	*
=:|!	=:|!	=:|!	=:|!	=:|!	=:|!	=:|!	=:|!
*>B	*	*>B	*	*>B	*	*>C	*
4FF	.	8FL	.	4c	.	4a	Dass
.	.	8AJ	.	.	.	.	.
=9	=9	=9	=9	=9	=9	=9	=9
8FL	.	4c	.	4f	.	4a	wir
8GJ	.	.	.	.	.	.	.
8FL	.	4c	.	4f	.	4a	in
8E-J	.	.	.	.	.	.	.
8DL	.	4d	.	8f#L	.	4a	gu-
8EnJ	.	.	.	8gJ	.	.	.
8F#L	.	8dL	.	8aL	.	4a	-ter
8DJ	.	8cJ	.	8f#J	.	.	.
=10	=10	=10	=10	=10	=10	=10	=10
8GL	.	4B-	.	8gL	.	2b-	Stil-
8F	.	.	.	8e-J	.	.	.
8E-	.	4A-	.	4f	.	.	.
8DJ	.	.	.	.	.	.	.
4E-;	.	4G;	.	4e-;	.	4b-;	-le
4En	.	4c	.	4g	.	4b-	das
=11	=11	=11	=11	=11	=11	=11	=11
4F	.	4c	.	4f	.	4a	alt'
8CL	.	4c	.	8e-L	.	4a	Jahr
8DJ	.	.	.	8dJ	.	.	.
8E-L	.	4f	.	4c	.	4a	hab'n
8GJ	.	.	.	.	.	.	.
8FL	.	4c	.	4f	.	4a	er-
8E-J	.	.	.	.	.	.	.
=12	=12	=12	=12	=12	=12	=12	=12
8DL	.	8B-L	.	4f	.	2b-	-f√ºl-
8BB-J	.	8A-J	.	.	.	.	.
4E-	.	4G	.	4e-	.	.	.
4BB-;	.	4F;	.	4d;	.	4b-;	-let.
4B-	.	4B-	.	8fL	.	4dd	Wir
.	.	.	.	8gJ	.	.	.
=13	=13	=13	=13	=13	=13	=13	=13
4F#	.	4A	.	4a	.	8ddL	woll'n
.	.	.	.	.	.	8ccJ	.
8GL	.	8B-L	.	4d	.	4b-	uns
8FnJ	.	8AJ	.	.	.	.	.
8E-L	.	8GL	.	8gL	.	4cc	dir
8FJ	.	8AJ	.	8fJ	.	.	.
8E-L	.	4B-	.	4f	.	4dd	er-
8DJ	.	.	.	.	.	.	.
=14	=14	=14	=14	=14	=14	=14	=14
4C	.	4B-	.	8e-L	.	2ee-	-ge-
.	.	.	.	8d	.	.	.
4F	.	4A	.	8c	.	.	.
.	.	.	.	8fJ	.	.	.
4BB-;	.	4B-;	.	4f;	.	4dd;	-ben
4B-	.	4B-	.	4f	.	4dd	jetz-
=15	=15	=15	=15	=15	=15	=15	=15
4A	.	4c	.	8fL	.	8ccL	-und
.	.	.	.	8dJ	.	8bnJ	.
4A-	.	4c	.	8e-L	.	8ccL	und
.	.	.	.	8fJ	.	8ffJ	.
8GL	.	4c	.	8gL	.	8ee-L	im-
8FJ	.	.	.	8a-J	.	8ddJ	.
4G	.	4Bn	.	8gL	.	4dd	-mer-
.	.	.	.	8fJ	.	.	.
=16	=16	=16	=16	=16	=16	=16	=16
*M3/4	*	*M3/4	*	*M3/4	*	*M3/4	*
!	!	!	!	! The following encoding is probabaly an error.	!	!	!
!	!	!	!	! Music should be lowered by a 3rd.	!	!	!
!	!	!	!	! G4     4        h     u	!	!	!
!	!	!	!	! A4     2        q     u	!	!	!
!	!	!	!	! measure 17	!	!	!
!	!	!	!	! Bf4    4        h     d	!	!	!
!	!	!	!	! A4     1        e     u  [	!	!	!
!	!	!	!	! G4     1        e     u  ]	!	!	!
!	!	!	!	! measure 18	!	!	!
!	!	!	!	! F4     2        q     u	!	!	!
!	!	!	!	! End of mistake.	!	!	!
2C	.	2G	.	2e-	.	2cc	-dar:
4D	.	4d	.	4f	.	4bn	be-
=17	=17	=17	=17	=17	=17	=17	=17
4E-	.	4c	.	2g	.	2cc	-h√ºt'
4En	.	4B-	.	.	.	.	.
[4F	uns	4A-	.	8fL	.	4cc	uns
.	.	.	.	8e-J	.	.	.
=18	=18	=18	=18	=18	=18	=18	=18
4F]	.	2A	.	4d	.	2dd	Leib
4F#	Leib	.	.	8ddL	.	.	.
.	.	.	.	8ccJ	.	.	.
[4G	und	4B-	.	8b-L	.	4dd	un
.	.	.	.	8a-J	.	.	.
=19	=19	=19	=19	=19	=19	=19	=19
4G]	.	4Bn	.	8gL	Le-	2.ee-	Le-
.	.	.	.	8f	.	.	.
4A-	Le-	[2c	.	8e-	.	.	.
.	.	.	.	8g	.	.	.
4G	.	.	.	8cc	.	.	.
.	.	.	.	8b-J	.	.	.
=20	=20	=20	=20	=20	=20	=20	=20
4F#	.	4c]	.	4a	.	2dd	-ben
4G	-ben	4B-	.	4d	-ben	.	.
4Fn	.	4B-	.	4g	.	4dd	hin-
=21	=21	=21	=21	=21	=21	=21	=21
4En	.	4B-	.	4g	.	2cc	-fort
8FL	.	8A-L	.	4f	.	.	.
8GJ	.	8B-J	.	.	.	.	.
4A-	.	8cL	.	8e-L	.	4cc	das
.	.	8dJ	.	8fJ	.	.	.
=22	=22	=22	=22	=22	=22	=22	=22
4G	.	4e-	.	4g	.	4cc	gan-
4F	.	4f	.	4a-	.	8ee-L	.
.	.	.	.	.	.	8ddJ	.
4G	.	4d	.	4g	.	8ccL	-ze
.	.	.	.	.	.	8bnJ	.
=23	=23	=23	=23	=23	=23	=23	=23
2C;	.	2e-;	.	2g;	.	2cc;	Jahr!
4G	be-	4d	be-	4g	be-	4bn	be-
=24	=24	=24	=24	=24	=24	=24	=24
4A-	-h√ºt'	4c	-h√ºt'	4g	-h√ºt'	2cc	-h√ºt'
2An	uns	4f	.	[2f	uns	.	.
.	.	4e-	uns	.	.	4cc	uns
=25	=25	=25	=25	=25	=25	=25	=25
4B-	Leib	8dL	Leib	8fL]	.	2dd	Leib
.	.	8e-J	.	8gJ	.	.	.
2Bn	und	4f	.	4a-	Leib	.	.
.	.	8e-L	und	4g	und	4dd	und
.	.	8dJ	.	.	.	.	.
=26	=26	=26	=26	=26	=26	=26	=26
4c	.	4c	.	2g	.	2.ee-	Le-
4G	.	4B-	.	.	.	.	.
4A	.	4c	.	4f	.	.	.
=27	=27	=27	=27	=27	=27	=27	=27
8B-L	.	2B-	.	2f	.	2dd	-ben
8c	.	.	.	.	.	.	.
8B-	.	.	.	.	.	.	.
8AJ	.	.	.	.	.	.	.
8GL	.	4B-	.	4g	.	4dd	hin-
8FJ	.	.	.	.	.	.	.
=28	=28	=28	=28	=28	=28	=28	=28
8E-L	.	4c	.	2g	.	2cc	-fort
8G	.	.	.	.	.	.	.
8F	.	4d	.	.	.	.	.
8E-J	.	.	.	.	.	.	.
8DL	.	4e-	.	4g	.	4b-	das
8CJ	.	.	.	.	.	.	.
=29	=29	=29	=29	=29	=29	=29	=29
4F	.	4d	.	4f	.	4b-	gan-
4E-	.	4e-	.	4g	.	8ddL	.
.	.	.	.	.	.	8ccJ	.
4F	.	4c	.	4f	.	8b-L	-ze
.	.	.	.	.	.	8aJ	.
=30	=30	=30	=30	=30	=30	=30	=30
2.BB-;	.	2.d;	.	2.f;	.	2.b-;	Jahr!
==|!	==|!	==|!	==|!	==|!	==|!	==|!	==|!
*-	*-	*-	*-	*-	*-	*-	*-
!!!RWG: Key is interpreted using the Humdrum key tool.
!!!END: 1994/07/08
!!!EMD: Converted from MuseData to Humdrum Dec 19, 2000, by Andreas Kornstaedt using muse2kern.
!!!EED: Craig Stuart Sapp
!!!EEV: 2024/03/31
!!!ONB: Some non-unicode characters
